X:211
T: Blue Bonnet[t] (The)
N: O'Farrell's Pocket Companion v.3 (Sky ed. p.106)
N: "Irish"
M: 6/8
L: 1/8
Q: 320
K: G
D/E/| G>AG AGA| B3 g2e| d>ed dBG| E3 D2E|
G>AG AGA| B3 g3| fag fed| e4 z :|
B| d>ed def| g3 B2e| d>ed dBG| E3 D2E|
G>AG AGA| B3 g2e| dBG AGA| G3-G2 :|
